X: 11323
Q: "With spirit."
M: C
L: 1/8
K: Bb
c2d=e f2af | d2gf f=edc |\
f2ga (d<f)=ef | f2z2z2  |]
f2 |\
f2ff f2(dB) | e2ee e2(cA) |\
d2(dB) G2cB | HB2 HA2 z2FF |\
(gf)(ed) (ec)(fe) | d2B2z2 |]


